X:1
T:Were You at the Fair?
M: 4/4
L:1/8
R:Fling
K: D
AFDE FEFG|AFDE F2 E2|AFDE FEFG|ABAF E2 D2:|
FAde d2 dB| ABdB AFED|FAde d2 dB| ABAF E2 D2|
FAde d2 dA|ABdB AFED|d2 de ~D3B| AdAf EF D2|]

